boxicons/svg/regular/bx-alarm-exclamation.svg

<svg xmlns="http://www.w3.org/2000/svg" width="24" height="24" viewBox="0 0 24 24"><path d="M12 22c4.879 0 9-4.121 9-9s-4.121-9-9-9-9 4.121-9 9 4.121 9 9 9zm0-16c3.794 0 7 3.206 7 7s-3.206 7-7 7-7-3.206-7-7 3.206-7 7-7zm5.284-2.293 1.412-1.416 3.01 3-1.413 1.417zM5.282 2.294 6.7 3.706l-2.99 3-1.417-1.413z"/><path d="M11 9h2v5h-2zm0 6h2v2h-2z"/></svg>

<svg xmlns="http://www.w3.org/2000/svg" width="24" height="24" viewBox="0 0 24 24"><path d="M12,22c4.879,0,9-4.121,9-9s-4.121-9-9-9s-9,4.121-9,9S7.121,22,12,22z M12,6c3.794,0,7,3.206,7,7s-3.206,7-7,7 s-7-3.206-7-7S8.206,6,12,6z"/><path transform="rotate(-45.082 19.494 4.5)" d="M18.495 2.375H20.495V6.625H18.495z"/><path transform="rotate(44.919 4.495 4.5)" d="M3.495 2.382H5.495V6.617000000000001H3.495z"/><path d="M11 9H13V14H11zM11 15H13V17H11z"/></svg>
